X:10885
T:Miss Hills Favourite. JC.050
M:2/4
L:1/16
Q:70
S:John Clare,Poet,Helpston. (1793-1864)
R:Hornpipe
O:England
A:Northamptonshire
N:
Z:P Headford
K:G
G>Bd>B d>Bc>A|G>Bd>B d>Bc>A|G>Bd>B e>cA>G|F>GA>F D>dc>A|!
G>Bd>B d>Bc>A|G>Bd>B d>Bc>A|G>ed>c B>AG>F|G>FG>A G2z2:|!
|:F>GA>B c>Bc>A|G>AB>c d>cd>c|e>AB>c d>GA>B|c>BA>G F>dc>A|!
G>AB>c d>Bc>A|G>AB>c d>Bc>A|d>Bg>f e>ca>g|f>ga>b g2z2|]
